newicons/agricultural_bank_of_china.svg

<?xml version="1.0" encoding="UTF-8" standalone="no"?>
<svg
   viewBox="0 0 48 48"
   version="1.1"
   id="svg1"
   sodipodi:docname="agricultural_bank_of_china.svg"
   inkscape:version="1.2.2 (b0a8486541, 2022-12-01)"
   xml:space="preserve"
   xmlns:inkscape="http://www.inkscape.org/namespaces/inkscape"
   xmlns:sodipodi="http://sodipodi.sourceforge.net/DTD/sodipodi-0.dtd"
   xmlns="http://www.w3.org/2000/svg"
   xmlns:svg="http://www.w3.org/2000/svg"><sodipodi:namedview
     id="namedview1"
     pagecolor="#505050"
     bordercolor="#eeeeee"
     borderopacity="1"
     inkscape:showpageshadow="0"
     inkscape:pageopacity="0"
     inkscape:pagecheckerboard="0"
     inkscape:deskcolor="#505050"
     inkscape:zoom="17.8125"
     inkscape:cx="21.277193"
     inkscape:cy="21.445614"
     inkscape:window-width="1918"
     inkscape:window-height="1053"
     inkscape:window-x="0"
     inkscape:window-y="0"
     inkscape:window-maximized="1"
     inkscape:current-layer="svg1"
     showgrid="false" /><defs
     id="defs1"><style
       id="style1">.a { fill:none;stroke:#fff;stroke-linecap:round;stroke-linejoin:round; }
</style></defs><path
     style="fill:none;stroke:#ffffff;stroke-width:1;stroke-linecap:round;stroke-linejoin:round;stroke-dashoffset:3.6;stroke-opacity:1"
     d="M 45.5,24 C 45.5,35.874122 35.874122,45.5 24,45.5 12.125878,45.5 2.5000002,35.874122 2.5000002,24 2.5000004,12.125878 12.125878,2.5000004 24,2.5000002 35.874122,2.5000002 45.5,12.125878 45.5,24 Z"
     id="path1515" /><g
     id="g1535"><path
       style="fill:none;stroke:#ffffff;stroke-width:1;stroke-linecap:round;stroke-linejoin:round;stroke-dashoffset:3.6;stroke-opacity:1"
       d="M 16.865497,8.9382208 V 29.891105 c 0,0.626597 0.504448,1.131046 1.131045,1.131046 l 3.670511,6.9e-4 1.4e-4,9.492118 C 13.438118,39.354499 7.31957,32.311272 7.3195698,24 c 1e-7,-6.445587 3.7135882,-12.314355 9.5384722,-15.0741232"
       id="path1513" /><path
       style="fill:none;stroke:#ffffff;stroke-width:1;stroke-linecap:round;stroke-linejoin:round;stroke-dashoffset:3.6;stroke-opacity:1"
       d="m 31.134503,29.891105 c 0,0.626597 -0.504448,1.131046 -1.131045,1.131046 l -3.670511,6.9e-4 -1.4e-4,9.492118 C 34.561882,39.354499 40.68043,32.311272 40.68043,24 v 0 c 0,-6.447862 -3.716182,-12.318276 -9.545045,-15.0770302 z"
       id="path1511" /></g><path
     style="fill:none;stroke:#ffffff;stroke-width:1;stroke-linecap:round;stroke-linejoin:round;stroke-dashoffset:3.6;stroke-opacity:1"
     d="M 45.5,24 C 45.5,35.874122 35.874122,45.5 24,45.5 12.125878,45.5 2.5000002,35.874122 2.5000002,24 2.5000004,12.125878 12.125878,2.5000004 24,2.5000002 35.874122,2.5000002 45.5,12.125878 45.5,24 Z"
     id="path1509" /><g
     id="g1531"><path
       style="fill:none;stroke:#ffffff;stroke-width:1;stroke-linecap:round;stroke-linejoin:round;stroke-dashoffset:3.6;stroke-opacity:1"
       d="m 27.474576,2.78203 v 13.088742 c 0,0.313299 -0.252223,0.565523 -0.565523,0.565523 H 25.278069 C 24.427592,16.436295 24,16.941413 24,16.941413 c 0,0 -0.427592,-0.505118 -1.278069,-0.505118 h -1.630984 c -0.3133,0 -0.565523,-0.252224 -0.565523,-0.565523 V 2.78203"
       id="path1507" /><path
       style="fill:none;stroke:#ffffff;stroke-width:1;stroke-linecap:round;stroke-linejoin:round;stroke-dashoffset:3.6;stroke-opacity:1"
       d="M 24,16.830882 V 30.871458"
       id="path1505" /><path
       style="fill:none;stroke:#ffffff;stroke-width:1;stroke-linecap:round;stroke-linejoin:round;stroke-dashoffset:3.6;stroke-opacity:1"
       d="m 16.864862,23.80895 c 0.175346,0.131659 0.378976,0.219421 0.610332,0.2196 l 5.127326,0.004 C 23.530414,24.03327 24,25.441876 24,25.441876 c 0,0 0.469586,-1.408606 1.39748,-1.409326 l 5.127326,-0.004 c 0.231356,-1.79e-4 0.434986,-0.08794 0.610332,-0.2196"
       id="path1477" /></g></svg>

<?xml version="1.0" encoding="UTF-8"?><svg id="a" xmlns="http://www.w3.org/2000/svg" viewBox="0 0 48 48"><defs><style>.k{fill:none;stroke:#fff;stroke-linecap:round;stroke-linejoin:round;}</style></defs><path id="b" class="k" d="M45.5,24c0,11.8741-9.6259,21.5-21.5,21.5S2.5,35.8741,2.5,24c0-11.8741,9.6259-21.5,21.5-21.5,11.8741,0,21.5,9.6259,21.5,21.5Z"/><g id="c"><path id="d" class="k" d="M16.8655,8.9382v20.9529c0,.6266.5044,1.131,1.131,1.131l3.6705.0007v9.4921c-8.2289-1.1605-14.3475-8.2037-14.3475-16.515,0-6.4456,3.7136-12.3144,9.5385-15.0741"/><path id="e" class="k" d="M31.1345,29.8911c0,.6266-.5044,1.131-1.131,1.131l-3.6705.0007v9.4921c8.2289-1.1605,14.3475-8.2037,14.3475-16.515h0c0-6.4479-3.7162-12.3183-9.545-15.077l-.0009,20.9681Z"/></g><path id="f" class="k" d="M45.5,24c0,11.8741-9.6259,21.5-21.5,21.5S2.5,35.8741,2.5,24c0-11.8741,9.6259-21.5,21.5-21.5,11.8741,0,21.5,9.6259,21.5,21.5Z"/><g id="g"><path id="h" class="k" d="M27.4746,2.782v13.0887c0,.3133-.2522.5655-.5655.5655h-1.631c-.8505,0-1.2781.5051-1.2781.5051,0,0-.4276-.5051-1.2781-.5051h-1.631c-.3133,0-.5655-.2522-.5655-.5655V2.782"/><path id="i" class="k" d="M24,16.8309v14.0406"/><path id="j" class="k" d="M16.8649,23.809c.1753.1317.379.2194.6103.2196l5.1273.004c.9279.0007,1.3975,1.4093,1.3975,1.4093,0,0,.4696-1.4086,1.3975-1.4093l5.1273-.004c.2314-.0002.435-.0879.6103-.2196"/></g></svg>
